animalshelter/animalshelter-web-ui/src/main/resources/images_shelter/Food.svg

<svg xmlns="http://www.w3.org/2000/svg" xmlns:xlink="http://www.w3.org/1999/xlink" width="1080" zoomAndPan="magnify" viewBox="0 0 810 809.999993" height="1080" preserveAspectRatio="xMidYMid meet" version="1.0"><defs><clipPath id="de7122102c"><path d="M 194.910156 412 L 566.910156 412 L 566.910156 471 L 194.910156 471 Z M 194.910156 412 " clip-rule="nonzero"/></clipPath><clipPath id="1629c6f673"><path d="M 218 470 L 544 470 L 544 552.507812 L 218 552.507812 Z M 218 470 " clip-rule="nonzero"/></clipPath><clipPath id="01a18eb59b"><path d="M 301 251.757812 L 461 251.757812 L 461 295 L 301 295 Z M 301 251.757812 " clip-rule="nonzero"/></clipPath><clipPath id="b2377dac2e"><path d="M 426 490 L 631 490 L 631 570.132812 L 426 570.132812 Z M 426 490 " clip-rule="nonzero"/></clipPath></defs><rect x="-81" width="972" fill="#ffffff" y="-80.999999" height="971.999992" fill-opacity="1"/><rect x="-81" width="972" fill="#ff8484" y="-80.999999" height="971.999992" fill-opacity="1"/><g clip-path="url(#de7122102c)"><path fill="#756156" d="M 224.042969 412.394531 L 537.777344 412.394531 C 553.816406 412.394531 566.910156 425.484375 566.910156 441.519531 C 566.910156 457.550781 553.816406 470.644531 537.777344 470.644531 L 224.042969 470.644531 C 208.003906 470.644531 194.910156 457.550781 194.910156 441.519531 C 194.910156 425.5625 208.003906 412.394531 224.042969 412.394531 Z M 224.042969 412.394531 " fill-opacity="1" fill-rule="evenodd"/></g><g clip-path="url(#1629c6f673)"><path fill="#db6f17" d="M 543.585938 470.023438 L 539.480469 514.097656 C 537.542969 535.085938 518.714844 552.28125 497.714844 552.28125 L 264.023438 552.28125 C 243.027344 552.28125 224.277344 535.085938 222.261719 514.097656 L 218.15625 470.023438 C 220.015625 470.410156 222.027344 470.644531 224.042969 470.644531 L 537.777344 470.644531 C 539.710938 470.644531 541.726562 470.410156 543.585938 470.023438 Z M 543.585938 470.023438 " fill-opacity="1" fill-rule="evenodd"/></g><path fill="#f6f0d8" d="M 547.074219 414.019531 L 539.480469 332.769531 C 537.542969 311.699219 518.714844 294.582031 497.714844 294.582031 L 264.023438 294.582031 C 243.027344 294.582031 224.277344 311.777344 222.261719 332.769531 L 214.667969 414.019531 C 217.613281 413.015625 220.789062 412.472656 224.042969 412.472656 L 537.777344 412.472656 C 541.03125 412.394531 544.128906 413.015625 547.074219 414.019531 Z M 547.074219 414.019531 " fill-opacity="1" fill-rule="evenodd"/><path fill="#f6f0d8" d="M 334.226562 444.539062 L 427.59375 444.539062 C 430.074219 444.539062 432.164062 446.554688 432.164062 449.109375 L 432.164062 493.648438 C 432.164062 496.125 430.152344 498.21875 427.59375 498.21875 L 334.226562 498.21875 C 331.746094 498.21875 329.652344 496.203125 329.652344 493.648438 L 329.652344 449.03125 C 329.652344 446.554688 331.667969 444.539062 334.226562 444.539062 Z M 334.226562 444.539062 " fill-opacity="1" fill-rule="evenodd"/><path fill="#756156" d="M 380.5625 316.96875 L 381.179688 316.96875 C 383.039062 316.96875 384.511719 318.515625 384.511719 320.296875 L 384.511719 388.226562 C 384.511719 390.085938 382.960938 391.558594 381.179688 391.558594 L 380.5625 391.558594 C 378.703125 391.558594 377.230469 390.007812 377.230469 388.226562 L 377.230469 320.296875 C 377.152344 318.4375 378.703125 316.96875 380.5625 316.96875 Z M 380.5625 316.96875 " fill-opacity="1" fill-rule="evenodd"/><path fill="#756156" d="M 329.808594 316.96875 L 330.429688 316.96875 C 332.289062 317.042969 333.683594 318.671875 333.527344 320.453125 L 329.035156 388.304688 C 328.878906 390.164062 327.328125 391.558594 325.46875 391.480469 L 324.851562 391.480469 C 322.992188 391.402344 321.59375 389.777344 321.75 387.996094 L 326.246094 320.144531 C 326.320312 318.285156 327.949219 316.890625 329.808594 316.96875 Z M 329.808594 316.96875 " fill-opacity="1" fill-rule="evenodd"/><path fill="#756156" d="M 431.933594 316.96875 L 431.3125 316.96875 C 429.453125 317.042969 428.058594 318.671875 428.214844 320.453125 L 432.707031 388.304688 C 432.863281 390.164062 434.414062 391.558594 436.273438 391.480469 L 436.890625 391.480469 C 438.75 391.402344 440.144531 389.777344 439.992188 387.996094 L 435.496094 320.144531 C 435.417969 318.285156 433.792969 316.890625 431.933594 316.96875 Z M 431.933594 316.96875 " fill-opacity="1" fill-rule="evenodd"/><g clip-path="url(#01a18eb59b)"><path fill="#756156" d="M 324.773438 251.980469 L 437.046875 251.980469 C 443.554688 251.980469 449.519531 254.613281 453.859375 258.953125 C 458.199219 263.289062 460.835938 269.175781 460.835938 275.761719 L 460.835938 294.582031 L 446.578125 294.582031 L 446.578125 275.761719 C 446.578125 273.125 445.492188 270.804688 443.789062 269.097656 C 442.082031 267.394531 439.679688 266.308594 437.125 266.308594 L 324.773438 266.308594 C 322.136719 266.308594 319.8125 267.394531 318.109375 269.097656 C 316.402344 270.804688 315.320312 273.203125 315.320312 275.761719 L 315.320312 294.582031 L 301.0625 294.582031 L 301.0625 275.761719 C 301.0625 269.253906 303.695312 263.289062 308.035156 258.953125 C 312.21875 254.613281 318.1875 251.980469 324.773438 251.980469 Z M 324.773438 251.980469 " fill-opacity="1" fill-rule="nonzero"/></g><g clip-path="url(#b2377dac2e)"><path fill="#60cbef" d="M 627.632812 542.375 L 609.441406 493.160156 C 586.265625 500.183594 559.683594 504.144531 531.480469 504.144531 C 500.421875 504.144531 471.367188 499.332031 446.613281 490.945312 L 430.339844 535.054688 C 424.972656 549.570312 422.375 547.613281 436.902344 553.359375 C 463.65625 563.917969 496.289062 570.132812 531.523438 570.132812 C 566.03125 570.132812 598.066406 564.175781 624.480469 554 C 633.085938 550.679688 631.042969 551.570312 627.632812 542.375 Z M 627.632812 542.375 " fill-opacity="1" fill-rule="evenodd"/></g><path fill="#f0872b" d="M 467.574219 478.003906 C 449.34375 477.152344 450.238281 485.070312 446.613281 490.945312 C 471.367188 499.332031 500.421875 504.144531 531.480469 504.144531 C 559.683594 504.144531 586.265625 500.140625 609.441406 493.160156 C 608.421875 483.75 608.164062 473.960938 591.636719 472.171875 C 588.441406 460.292969 563.175781 450.882812 555.421875 470.808594 C 544.558594 465.230469 536.378906 463.058594 524.238281 472.171875 C 520.316406 465.019531 511.542969 462.082031 504.894531 466 C 488.367188 459.398438 473.371094 463.953125 467.574219 478.003906 Z M 467.574219 478.003906 " fill-opacity="1" fill-rule="evenodd"/><path fill="#f6f0d8" d="M 471.878906 488.648438 C 474.308594 488.648438 476.265625 489.667969 476.265625 490.902344 C 476.265625 492.136719 474.308594 493.160156 471.878906 493.160156 C 469.449219 493.160156 467.492188 492.136719 467.492188 490.902344 C 467.449219 489.667969 469.449219 488.648438 471.878906 488.648438 Z M 593.339844 484.132812 C 595.765625 484.132812 597.726562 485.15625 597.726562 486.390625 C 597.726562 487.625 595.765625 488.648438 593.339844 488.648438 C 590.910156 488.648438 588.949219 487.625 588.949219 486.390625 C 588.949219 485.15625 590.910156 484.132812 593.339844 484.132812 Z M 582.5625 476.898438 C 584.988281 476.898438 586.949219 477.917969 586.949219 479.152344 C 586.949219 480.386719 584.988281 481.410156 582.5625 481.410156 C 580.132812 481.410156 578.171875 480.386719 578.171875 479.152344 C 578.128906 477.917969 580.132812 476.898438 582.5625 476.898438 Z M 570.546875 464.933594 C 572.976562 464.933594 574.933594 465.957031 574.933594 467.191406 C 574.933594 468.425781 572.976562 469.445312 570.546875 469.445312 C 568.117188 469.445312 566.160156 468.425781 566.160156 467.191406 C 566.160156 465.957031 568.117188 464.933594 570.546875 464.933594 Z M 571.695312 488.347656 C 574.125 488.347656 576.085938 489.371094 576.085938 490.605469 C 576.085938 491.839844 574.125 492.863281 571.695312 492.863281 C 569.269531 492.863281 567.308594 491.839844 567.308594 490.605469 C 567.308594 489.371094 569.269531 488.347656 571.695312 488.347656 Z M 558.53125 478.644531 C 560.960938 478.644531 562.921875 479.664062 562.921875 480.898438 C 562.921875 482.132812 560.960938 483.15625 558.53125 483.15625 C 556.105469 483.15625 554.144531 482.132812 554.144531 480.898438 C 554.144531 479.664062 556.105469 478.644531 558.53125 478.644531 Z M 546.390625 489.839844 C 548.820312 489.839844 550.777344 490.863281 550.777344 492.097656 C 550.777344 493.332031 548.820312 494.351562 546.390625 494.351562 C 543.960938 494.351562 542.003906 493.332031 542.003906 492.097656 C 542.003906 490.863281 543.960938 489.839844 546.390625 489.839844 Z M 540 472.425781 C 542.429688 472.425781 544.386719 473.449219 544.386719 474.683594 C 544.386719 475.917969 542.429688 476.941406 540 476.941406 C 537.570312 476.941406 535.613281 475.917969 535.613281 474.683594 C 535.613281 473.449219 537.570312 472.425781 540 472.425781 Z M 524.367188 484.859375 C 526.792969 484.859375 528.753906 485.878906 528.753906 487.113281 C 528.753906 488.347656 526.792969 489.371094 524.367188 489.371094 C 521.9375 489.371094 519.976562 488.347656 519.976562 487.113281 C 519.933594 485.835938 521.9375 484.859375 524.367188 484.859375 Z M 511.5 474.003906 C 513.925781 474.003906 515.886719 475.023438 515.886719 476.257812 C 515.886719 477.492188 513.925781 478.515625 511.5 478.515625 C 509.070312 478.515625 507.109375 477.492188 507.109375 476.257812 C 507.109375 474.980469 509.070312 474.003906 511.5 474.003906 Z M 499.699219 484.816406 C 502.125 484.816406 504.085938 485.835938 504.085938 487.074219 C 504.085938 488.308594 502.125 489.328125 499.699219 489.328125 C 497.269531 489.328125 495.308594 488.308594 495.308594 487.074219 C 495.265625 485.835938 497.269531 484.816406 499.699219 484.816406 Z M 484.105469 476.855469 C 486.535156 476.855469 488.492188 477.875 488.492188 479.109375 C 488.492188 480.34375 486.535156 481.367188 484.105469 481.367188 C 481.675781 481.367188 479.71875 480.34375 479.71875 479.109375 C 479.71875 477.875 481.675781 476.855469 484.105469 476.855469 Z M 484.105469 476.855469 " fill-opacity="1" fill-rule="evenodd"/><path fill="#f6f0d8" d="M 509.667969 536.585938 C 502.550781 543.3125 517.675781 549.058594 519.890625 539.992188 L 536.507812 539.992188 C 538.722656 549.058594 553.847656 543.269531 546.730469 536.585938 C 544.730469 534.671875 544.730469 535.863281 546.730469 533.988281 C 553.847656 527.261719 538.722656 521.515625 536.507812 530.582031 L 519.933594 530.582031 C 517.71875 521.515625 502.59375 527.261719 509.710938 533.988281 C 511.667969 535.863281 511.667969 534.671875 509.667969 536.585938 Z M 509.667969 536.585938 " fill-opacity="1" fill-rule="evenodd"/></svg>

<svg xmlns="http://www.w3.org/2000/svg" id="food" width="1080" height="1080" version="1.0" viewBox="0 0 810 810"><defs><clipPath id="a"><path d="M194.91 412h372v59h-372Zm0 0"/></clipPath><clipPath id="b"><path d="M218 470h326v82.508H218Zm0 0"/></clipPath><clipPath id="c"><path d="M301 251.758h160V295H301Zm0 0"/></clipPath><clipPath id="d"><path d="M426 490h205v80.133H426Zm0 0"/></clipPath></defs><g clip-path="url(#a)"><path fill="#756156" fill-rule="evenodd" d="M224.043 412.395h313.734c16.04 0 29.133 13.09 29.133 29.125 0 16.03-13.094 29.125-29.133 29.125H224.043c-16.04 0-29.133-13.094-29.133-29.125 0-15.957 13.094-29.125 29.133-29.125Zm0 0"/></g><g clip-path="url(#b)"><path fill="#db6f17" fill-rule="evenodd" d="m543.586 470.023-4.106 44.075c-1.937 20.988-20.765 38.183-41.765 38.183H264.023c-20.996 0-39.746-17.195-41.761-38.183l-4.106-44.075c1.86.387 3.871.622 5.887.622h313.734c1.934 0 3.95-.235 5.809-.622Zm0 0"/></g><path fill="#f6f0d8" fill-rule="evenodd" d="m547.074 414.023-7.594-81.253c-1.937-21.07-20.765-38.188-41.765-38.188H264.023c-20.996 0-39.746 17.195-41.761 38.188l-7.594 81.253a29.004 29.004 0 0 1 9.375-1.55h313.734c3.254-.078 6.352.543 9.297 1.55ZM334.227 444.54h93.367c2.48 0 4.57 2.015 4.57 4.57v44.538c0 2.477-2.012 4.57-4.57 4.57h-93.367c-2.48 0-4.575-2.015-4.575-4.57v-44.617c0-2.476 2.016-4.492 4.575-4.492Zm0 0"/><path fill="#756156" fill-rule="evenodd" d="M380.563 316.969h.617c1.86 0 3.332 1.547 3.332 3.328v67.93c0 1.859-1.551 3.332-3.332 3.332h-.618c-1.859 0-3.332-1.547-3.332-3.332v-67.93c-.078-1.86 1.473-3.328 3.332-3.328ZM329.809 316.969h.62c1.86.078 3.255 1.703 3.098 3.484l-4.492 67.852c-.156 1.86-1.707 3.254-3.566 3.175h-.617c-1.86-.078-3.258-1.703-3.102-3.484l4.496-67.851c.074-1.86 1.703-3.254 3.563-3.176ZM431.934 316.969h-.622c-1.859.078-3.253 1.703-3.097 3.484l4.492 67.852c.156 1.86 1.707 3.254 3.566 3.175h.618c1.859-.078 3.254-1.703 3.101-3.484l-4.496-67.851c-.078-1.86-1.703-3.254-3.562-3.176Zm0 0"/><g clip-path="url(#c)"><path fill="#756156" d="M324.773 251.98h112.274a23.722 23.722 0 0 1 16.812 6.973c4.34 4.336 6.977 10.223 6.977 16.809v18.82h-14.258v-18.82c0-2.637-1.086-4.957-2.789-6.664-1.707-1.703-4.11-2.79-6.664-2.79H324.773c-2.636 0-4.96 1.087-6.664 2.79-1.707 1.707-2.789 4.105-2.789 6.664v18.82h-14.257v-18.82a23.706 23.706 0 0 1 6.972-16.809c4.184-4.34 10.152-6.973 16.738-6.973Zm0 0"/></g><g clip-path="url(#d)"><path fill="#60cbef" fill-rule="evenodd" d="M627.633 542.375 609.44 493.16c-23.175 7.024-49.757 10.985-77.96 10.985-31.06 0-60.114-4.813-84.868-13.2l-16.273 44.11c-5.367 14.515-7.965 12.558 6.562 18.304 26.754 10.559 59.387 16.774 94.621 16.774 34.508 0 66.543-5.957 92.957-16.133 8.606-3.32 6.563-2.43 3.153-11.625Zm0 0"/></g><path fill="#f0872b" fill-rule="evenodd" d="M467.574 478.004c-18.23-.852-17.336 7.066-20.96 12.941 24.753 8.387 53.808 13.2 84.866 13.2 28.204 0 54.786-4.004 77.961-10.985-1.02-9.41-1.277-19.2-17.804-20.988-3.196-11.879-28.461-21.29-36.215-1.363-10.863-5.579-19.043-7.75-31.184 1.363-3.922-7.152-12.695-10.09-19.343-6.172-16.528-6.602-31.524-2.047-37.32 12.004Zm0 0"/><path fill="#f6f0d8" fill-rule="evenodd" d="M471.879 488.648c2.43 0 4.387 1.02 4.387 2.254 0 1.235-1.957 2.258-4.387 2.258-2.43 0-4.387-1.023-4.387-2.258-.043-1.234 1.957-2.254 4.387-2.254Zm121.46-4.515c2.427 0 4.388 1.023 4.388 2.258 0 1.234-1.961 2.257-4.387 2.257-2.43 0-4.39-1.023-4.39-2.257 0-1.235 1.96-2.258 4.39-2.258Zm-10.777-7.235c2.426 0 4.387 1.02 4.387 2.254 0 1.235-1.96 2.258-4.386 2.258-2.43 0-4.391-1.023-4.391-2.258-.043-1.234 1.96-2.254 4.39-2.254Zm-12.015-11.964c2.43 0 4.387 1.023 4.387 2.257 0 1.235-1.957 2.254-4.387 2.254-2.43 0-4.387-1.02-4.387-2.254s1.957-2.257 4.387-2.257Zm1.148 23.414c2.43 0 4.39 1.023 4.39 2.257 0 1.235-1.96 2.258-4.39 2.258-2.425 0-4.386-1.023-4.386-2.258 0-1.234 1.96-2.257 4.386-2.257Zm-13.164-9.703c2.43 0 4.39 1.02 4.39 2.253 0 1.235-1.96 2.258-4.39 2.258-2.426 0-4.386-1.023-4.386-2.258 0-1.234 1.96-2.253 4.386-2.253Zm-12.14 11.195c2.43 0 4.386 1.023 4.386 2.258 0 1.234-1.957 2.254-4.386 2.254-2.43 0-4.387-1.02-4.387-2.254 0-1.235 1.957-2.258 4.387-2.258ZM540 472.426c2.43 0 4.387 1.023 4.387 2.258 0 1.234-1.957 2.257-4.387 2.257-2.43 0-4.387-1.023-4.387-2.257 0-1.235 1.957-2.258 4.387-2.258Zm-15.633 12.433c2.426 0 4.387 1.02 4.387 2.254 0 1.235-1.961 2.258-4.387 2.258-2.43 0-4.39-1.023-4.39-2.258-.043-1.277 1.96-2.254 4.39-2.254ZM511.5 474.004c2.426 0 4.387 1.02 4.387 2.254s-1.961 2.258-4.387 2.258c-2.43 0-4.39-1.024-4.39-2.258 0-1.278 1.96-2.254 4.39-2.254Zm-11.8 10.812c2.425 0 4.386 1.02 4.386 2.258 0 1.235-1.961 2.254-4.387 2.254-2.43 0-4.39-1.02-4.39-2.254-.043-1.238 1.96-2.258 4.39-2.258Zm-15.595-7.96c2.43 0 4.387 1.019 4.387 2.253 0 1.235-1.957 2.258-4.387 2.258-2.43 0-4.386-1.023-4.386-2.258 0-1.234 1.957-2.254 4.386-2.254ZM509.668 536.586c-7.117 6.726 8.008 12.473 10.223 3.406h16.617c2.215 9.067 17.34 3.278 10.222-3.406-2-1.914-2-.723 0-2.598 7.118-6.726-8.007-12.472-10.222-3.406h-16.574c-2.215-9.066-17.34-3.32-10.223 3.406 1.957 1.875 1.957.684-.043 2.598Zm0 0"/></svg>
